mobile/Foobar/Foobar/Assets.xcassets/logo.imageset/enterprise-light.svg

<svg fill="none" height="90" viewBox="0 0 418 90" width="418" xmlns="http://www.w3.org/2000/svg"><g fill="#512fc9"><path clip-rule="evenodd" d="m25.3774 45.0026c0-9.9246 8.0823-17.9994 18.0161-18.0002 9.9344.0008 18.0173 8.0756 18.0173 18.0002 0 9.9245-8.0822 17.9985-18.0166 17.9985-9.9345 0-18.0168-8.074-18.0168-17.9985zm7.4173 0c0 5.8323 4.7547 10.5768 10.5995 10.5768 5.8447 0 10.5993-4.7445 10.5993-10.5768 0-5.8331-4.7561-10.5783-10.6016-10.5783-5.8432 0-10.5972 4.7452-10.5972 10.5783z" fill-rule="evenodd"/><path clip-rule="evenodd" d="m86.1114 57.7119-8.7708-7.4725.1625-1.014c.1836-1.3708.2437-2.8016.2437-4.2148 0-1.7561-.0919-3.5614-.4062-5.229l8.7708-7.4616.1941-.1626c.2331-.2296.3921-.5298.4519-.8514.0637-.3251.0213-.6607-.1129-.9611-1.7902-5.4054-4.8796-10.5495-8.6788-14.814-.5367-.611-1.296-.8337-2.0092-.5227l-11.0509 3.7731-.9181-.7101c-2.5161-1.8724-5.2762-3.3914-8.2036-4.5152l-2.1888-11.24186-.0635-.23322c-.1091-.31799-.3023-.59715-.5594-.81262-.2571-.21562-.5677-.356793-.8985-.406237l-.0039-.003638c-5.7275-1.144567-11.6243-1.144567-17.3514 0-.3718.05656-.7168.226245-.9891.484175-.2723.26129-.458.59701-.5329.9679l-2.1884 11.2421-.9932.3957c-2.9341 1.2012-5.6746 2.8264-8.1323 4.8295l-11.0481-3.7767-.2437-.0777c-.3228-.0777-.66056-.0603-.97458.046-.3143.1095-.59078.3037-.79804.5615-3.80415 4.2645-6.8883 9.4085-8.676001 14.814-.153251.3392-.1836635.7209-.0857033 1.0813.0976863.3603.3172273.6782.6216263.8938l8.769798 7.4651-.16496 1.014c-.18367 1.3709-.24019 2.809-.24019 4.2115-.02429 1.7523.11095 3.5013.40517 5.2288l-8.765885 7.4726-.194845.1587c-.234474.2331-.392733.5302-.4537409.855-.0607106.3251-.0214945.6608.1126409.9609 1.7877 5.4091 4.87183 10.5463 8.67572 14.8034.53983.6149 1.30049.8373 2.01269.5301l11.0481-3.7805.8057.6502c2.5397 1.9149 5.3419 3.4589 8.3198 4.5788l2.1884 11.2491.0602.2331c.1098.3145.3039.5973.5617.8129.2574.2153.5685.353.9001.4062 2.8632.5229 5.7264.8301 8.6792.8301 2.9496 0 5.8129-.3072 8.6761-.8301.371-.0603.7157-.2297.9876-.4876.2719-.2616.4583-.597.5338-.9646l2.1923-11.2491 1.0944-.4417c2.8931-1.2224 5.6027-2.8334 8.0277-4.7872l11.0471 3.7804.24.0813c.6427.1732 1.2924-.0637 1.7727-.6114 3.8062-4.2571 6.8885-9.3943 8.6753-14.8034.1553-.339.1836-.7241.0882-1.0846-.0987-.3602-.3177-.6747-.6214-.8901zm-42.7173 13.6231c-14.5636 0-26.3688-11.7896-26.3688-26.3315 0-14.5412 11.7968-26.3339 26.3668-26.3351 14.5664.0012 26.3713 11.7939 26.3713 26.3351 0 14.5419-11.8059 26.3315-26.3693 26.3315z" fill-rule="evenodd"/><path d="m208.167 13.3374h-12.666v60.1179h12.666z"/><path d="m154.141 14.9409h-47.328v10.7651h16.754v47.7489h13.816v-47.7489h16.758z"/><g clip-rule="evenodd" fill-rule="evenodd"><path d="m294.08 32.4507c1.921.9999 3.588 2.4306 4.866 4.1796 1.363 1.8195 2.429 4.0486 3.206 6.6843.776 2.6393 1.161 5.6282 1.161 8.9776 0 3.1303-.438 6.0236-1.327 8.6734-.809 2.5084-2.066 4.8509-3.715 6.9071-1.557 1.9219-3.51 3.4836-5.724 4.5751-2.298 1.1167-4.822 1.6818-7.375 1.6501-2.211 0-4.064-.3075-5.558-.9222-1.486-.6076-2.867-1.4485-4.089-2.4906v15.9833h-12.669v-54.8608h7.846l.385.0177c.568.0282 1.116.2049 1.596.5053.551.3708.95.9291 1.126 1.5685l.936 3.0525.625-.6499c.639-.6324 1.313-1.219 2.013-1.763 3.021-2.338 6.745-3.5852 10.568-3.5327 2.212.0006 4.252.4807 6.129 1.4447zm-6.151 29.6207c.724-1.0033 1.286-2.3105 1.699-3.9179.406-1.6042.61-3.5579.61-5.8613 0-2.1977-.166-4.042-.49-5.5434-.325-1.4981-.784-2.7098-1.367-3.6355-.586-.922-1.292-1.5827-2.108-1.9889-.815-.3996-1.726-.6009-2.74-.6009-.925 0-1.762.0885-2.51.265-.749.1697-1.448.417-2.083.7421-.647.3248-1.247.7348-1.78 1.2225-.582.5333-1.126 1.1023-1.635 1.7063v17.6722l.413.4238c.763.7703 1.681 1.3708 2.694 1.7632 1.116.4167 2.288.6216 3.514.6216 1.115.0106 2.217-.2191 3.227-.6818.982-.4556 1.832-1.1871 2.556-2.187z"/><path d="m182.483 36.1885c-1.716-1.657-3.764-2.9323-6.01-3.7379-2.471-.8798-5.077-1.3144-7.7-1.2825-3.245 0-6.155.5476-8.729 1.6465-2.471 1.028-4.71 2.5401-6.581 4.455-1.815 1.8796-3.231 4.1054-4.167 6.5465-.974 2.5228-1.465 5.2077-1.451 7.9142 0 3.6921.561 6.9318 1.698 9.7159 1.13 2.7838 2.67 5.1157 4.619 6.9881 1.949 1.8761 4.223 3.2857 6.825 4.2397 2.599.9468 5.388 1.4238 8.354 1.4238 1.448 0 2.962-.1025 4.559-.3004 1.592-.2013 3.184-.5616 4.78-1.088 1.596-.5196 3.15-1.2402 4.661-2.166 1.296-.7876 2.518-1.7842 3.665-2.9782l.565-.6147-3.675-4.4586c-.523-.7244-1.282-1.0883-2.292-1.0883-.763 0-1.49.1766-2.182.5264-.699.3462-1.462.7349-2.292 1.1624-.914.4629-1.864.8514-2.842 1.1659-1.063.3498-2.33.5229-3.799.5229-2.754 0-5.004-.7843-6.744-2.3494-1.628-1.4627-2.673-3.7592-3.139-6.8895l-.089-.6818h24.438c.575 0 1.041-.0673 1.408-.1979.368-.1342.682-.3886.883-.7242.244-.4309.399-.9116.449-1.4061.081-.59.123-1.3496.123-2.2895 0-2.9994-.473-5.6846-1.412-8.0516-.869-2.2578-2.203-4.3033-3.923-6.0027zm-21.845 11.4435c.437-2.5438 1.338-4.494 2.697-5.8436 1.363-1.3532 3.255-2.028 5.681-2.028 1.36 0 2.518.2295 3.475.6853.896.41 1.684 1.0211 2.309 1.7843.59.742 1.02 1.5971 1.268 2.5119.257.9435.388 1.9149.384 2.8901z"/><path d="m244.238 32.4506c2.246.8056 4.294 2.0775 6.01 3.7345 1.674 1.6358 2.984 3.6387 3.923 6.0061.935 2.367 1.408 5.0523 1.408 8.0517 0 .9398-.035 1.6994-.123 2.2894-.049.4945-.205.9752-.448 1.4061-.202.3356-.512.5901-.88.7243-.452.1448-.928.2118-1.409.1979h-24.44l.088.6817c.466 3.1303 1.511 5.4268 3.143 6.8895 1.74 1.5686 3.99 2.346 6.743 2.346 1.469 0 2.737-.1696 3.8-.5195.974-.311 1.924-.6996 2.839-1.1623.833-.4311 1.596-.8197 2.291-1.1623.692-.3535 1.423-.5266 2.182-.5266 1.014 0 1.773.3604 2.292 1.0848l3.679 4.4586-.568.6148c-1.088 1.148-2.32 2.1481-3.662 2.9781-1.515.9258-3.065 1.6502-4.657 2.1694-1.557.5158-3.161.8761-4.785 1.0846-1.596.1979-3.11.3004-4.554.3004-2.85.0211-5.678-.4629-8.358-1.4238-2.55-.9186-4.876-2.3601-6.829-4.2397-1.949-1.8724-3.485-4.1972-4.618-6.9847-1.13-2.7875-1.699-6.0272-1.699-9.7193 0-2.7875.488-5.4233 1.455-7.9141.936-2.4411 2.352-4.667 4.167-6.5466 1.871-1.9114 4.11-3.427 6.578-4.4549 2.574-1.0989 5.483-1.6501 8.724-1.6501l.004.0036c2.623-.032 5.233.4026 7.704 1.2824zm-13.138 9.3379c-1.363 1.353-2.263 3.2998-2.698 5.8435h15.815c0-.9929-.127-1.9504-.385-2.8901-.261-.9362-.681-1.777-1.267-2.5119-.59-.7383-1.356-1.3319-2.313-1.7878-.953-.4523-2.108-.6783-3.474-.6783-2.426 0-4.319.6749-5.678 2.0246z"/><path d="m344.575 36.9096c-1.945-1.8796-4.265-3.3281-6.804-4.2572-2.645-.9894-5.572-1.4839-8.785-1.4839-3.245 0-6.196.4945-8.852 1.4839-2.56.9291-4.897 2.3812-6.867 4.2572-1.949 1.8934-3.471 4.1901-4.453 6.7269-1.048 2.6356-1.571 5.6033-1.571 8.8961 0 3.3174.523 6.31 1.571 8.9773 1.049 2.6605 2.535 4.9214 4.453 6.787 1.97 1.8903 4.307 3.353 6.867 4.2927 2.659 1.0068 5.607 1.5085 8.852 1.5085 3.213 0 6.144-.5017 8.785-1.5085 2.542-.9397 4.862-2.4024 6.804-4.2927 1.893-1.8656 3.365-4.1265 4.414-6.787 1.052-2.6638 1.575-5.6599 1.575-8.9773 0-3.2928-.523-6.2605-1.575-8.8961-.978-2.5297-2.483-4.8226-4.414-6.7269zm-9.155 24.9183c-1.374 2.021-3.524 3.0349-6.434 3.0349-2.997 0-5.194-1.0104-6.581-3.0349-1.392-2.0209-2.084-5.091-2.084-9.2139 0-4.1233.692-7.1934 2.084-9.1966 1.391-2.0068 3.584-3.0137 6.581-3.0137 2.91 0 5.06 1.0033 6.434 3.0137 1.377 2.0032 2.062 5.0733 2.062 9.1966 0 4.1229-.685 7.193-2.062 9.2139z"/></g><path d="m413.442 63.7604c.233.173.469.4449.717.8196l3.841 5.9037-.621.4381c-1.508 1.0032-3.157 1.7701-4.894 2.2717-2.048.6006-4.156.9045-6.338.9045-2.016 0-3.792-.2898-5.335-.8621-1.455-.5263-2.782-1.3602-3.881-2.4521-1.066-1.088-1.885-2.3953-2.39-3.8331-.565-1.6148-.84-3.3139-.819-5.0204v-21.5268h-3.598l-.318-.0174c-.505-.0531-.978-.2616-1.356-.6044-.462-.4133-.692-1.0246-.692-1.83v-4.8544l6.741-1.286 2.496-10.1643.092-.3077c.392-1.0775 1.285-1.6181 2.683-1.6181h6.624v12.1679h10.3v8.511h-10.3v20.6857l.014.4065c.057.7805.293 1.445.703 1.9853.473.6255 1.162.9435 2.058.9435.689.0139 1.374-.145 1.985-.4628.233-.1203.448-.2262.657-.3215.222-.099.469-.145.713-.1415.328-.0141.649.0778.918.2651z"/><path d="m293.362 31.0059.004.0001.002-.0001z"/><path d="m369.924 37.8704c1.285-1.8618 2.877-3.4871 4.71-4.8153 1.931-1.364 4.046-2.0492 6.334-2.0492 1.935 0 3.485.4558 4.661 1.3673l-1.631 9.1576-.078.3143c-.088.3463-.293.6536-.579.8693-.325.2296-.763.3426-1.307.3426-.466 0-1.009-.0635-1.634-.1838-.625-.1199-1.416-.1801-2.373-.1801-3.323 0-5.939 1.7381-7.846 5.2182v25.5438h-12.668v-41.6437h7.513l.452.0106c.378.0106.756.06 1.123.1484.385.0918.749.2613 1.063.5015.293.2402.519.5512.653.9047.17.445.3.901.388 1.3672l.696 3.8898z"/></g></svg>

<svg width="418" height="90" viewBox="0 0 418 90" fill="none" xmlns="http://www.w3.org/2000/svg">
<path fill-rule="evenodd" clip-rule="evenodd" d="M25.3774 45.0026C25.3774 35.078 33.4597 27.0032 43.3935 27.0024C53.3279 27.0032 61.4108 35.078 61.4108 45.0026C61.4108 54.9271 53.3286 63.0011 43.3942 63.0011C33.4597 63.0011 25.3774 54.9271 25.3774 45.0026ZM32.7947 45.0026C32.7947 50.8349 37.5494 55.5794 43.3942 55.5794C49.2389 55.5794 53.9935 50.8349 53.9935 45.0026C53.9935 39.1695 49.2374 34.4243 43.3919 34.4243C37.5487 34.4243 32.7947 39.1695 32.7947 45.0026Z" fill="#512FC9"/>
<path fill-rule="evenodd" clip-rule="evenodd" d="M86.1114 57.7119L77.3406 50.2394L77.5031 49.2254C77.6867 47.8546 77.7468 46.4238 77.7468 45.0106C77.7468 43.2545 77.6549 41.4492 77.3406 39.7816L86.1114 32.32L86.3055 32.1574C86.5386 31.9278 86.6976 31.6276 86.7574 31.306C86.8211 30.9809 86.7787 30.6453 86.6445 30.3449C84.8543 24.9395 81.7649 19.7954 77.9657 15.5309C77.429 14.9199 76.6697 14.6972 75.9565 15.0082L64.9056 18.7813L63.9875 18.0712C61.4714 16.1988 58.7113 14.6798 55.7839 13.556L53.5951 2.31414L53.5316 2.08092C53.4225 1.76293 53.2293 1.48377 52.9722 1.2683C52.7151 1.05268 52.4045 0.911507 52.0737 0.862063L52.0698 0.858425C46.3423 -0.286142 40.4455 -0.286142 34.7184 0.858425C34.3466 0.914985 34.0016 1.08467 33.7293 1.3426C33.457 1.60389 33.2713 1.93961 33.1964 2.3105L31.008 13.5526L30.0148 13.9483C27.0807 15.1495 24.3402 16.7747 21.8825 18.7778L10.8344 15.0011L10.5907 14.9234C10.2679 14.8457 9.93014 14.8631 9.61612 14.9694C9.30182 15.0789 9.02534 15.2731 8.81808 15.5309C5.01393 19.7954 1.92978 24.9394 0.142079 30.3449C-0.011172 30.6841 -0.0415845 31.0658 0.0563757 31.4262C0.154062 31.7865 0.373603 32.1044 0.678002 32.32L9.4478 39.7851L9.28284 40.7991C9.09917 42.17 9.04265 43.6081 9.04265 45.0106C9.01836 46.7629 9.1536 48.5119 9.44782 50.2394L0.681935 57.712L0.48709 57.8707C0.252616 58.1038 0.094357 58.4009 0.0333491 58.7257C-0.0273615 59.0508 0.0118546 59.3865 0.14599 59.6866C1.93369 65.0957 5.01782 70.2329 8.82171 74.49C9.36154 75.1049 10.1222 75.3273 10.8344 75.0201L21.8825 71.2396L22.6882 71.8898C25.2279 73.8047 28.0301 75.3487 31.008 76.4686L33.1964 87.7177L33.2566 87.9508C33.3664 88.2653 33.5605 88.5481 33.8183 88.7637C34.0757 88.979 34.3868 89.1167 34.7184 89.1699C37.5816 89.6928 40.4448 90 43.3976 90C46.3472 90 49.2105 89.6928 52.0737 89.1699C52.4447 89.1096 52.7894 88.9402 53.0613 88.6823C53.3332 88.4207 53.5196 88.0853 53.5951 87.7177L55.7874 76.4686L56.8818 76.0269C59.7749 74.8045 62.4845 73.1935 64.9095 71.2397L75.9566 75.0201L76.1966 75.1014C76.8393 75.2746 77.489 75.0377 77.9693 74.49C81.7755 70.2329 84.8578 65.0957 86.6446 59.6866C86.7999 59.3476 86.8282 58.9625 86.7328 58.602C86.6341 58.2418 86.4151 57.9273 86.1114 57.7119ZM43.3941 71.335C28.8305 71.335 17.0253 59.5454 17.0253 45.0035C17.0253 30.4623 28.8221 18.6696 43.3921 18.6684C57.9585 18.6696 69.7634 30.4623 69.7634 45.0035C69.7634 59.5454 57.9575 71.335 43.3941 71.335Z" fill="#512FC9"/>
<path d="M208.167 13.3374H195.501V73.4553H208.167V13.3374Z" fill="#512FC9"/>
<path d="M154.141 14.9409H106.813V25.706H123.567V73.4549H137.383V25.706H154.141V14.9409Z" fill="#512FC9"/>
<path fill-rule="evenodd" clip-rule="evenodd" d="M294.08 32.4507C296.001 33.4506 297.668 34.8813 298.946 36.6303C300.309 38.4498 301.375 40.6789 302.152 43.3146C302.928 45.9539 303.313 48.9428 303.313 52.2922C303.313 55.4225 302.875 58.3158 301.986 60.9656C301.177 63.474 299.92 65.8165 298.271 67.8727C296.714 69.7946 294.761 71.3563 292.547 72.4478C290.249 73.5645 287.725 74.1296 285.172 74.0979C282.961 74.0979 281.108 73.7904 279.614 73.1757C278.128 72.5681 276.747 71.7272 275.525 70.6851V86.6684H262.856V31.8076H270.702L271.087 31.8253C271.655 31.8535 272.203 32.0302 272.683 32.3306C273.234 32.7014 273.633 33.2597 273.809 33.8991L274.745 36.9516L275.37 36.3017C276.009 35.6693 276.683 35.0827 277.383 34.5387C280.404 32.2007 284.128 30.9535 287.951 31.006C290.163 31.0066 292.203 31.4867 294.08 32.4507ZM287.929 62.0714C288.653 61.0681 289.215 59.7609 289.628 58.1535C290.034 56.5493 290.238 54.5956 290.238 52.2922C290.238 50.0945 290.072 48.2502 289.748 46.7488C289.423 45.2507 288.964 44.039 288.381 43.1133C287.795 42.1913 287.089 41.5306 286.273 41.1244C285.458 40.7248 284.547 40.5235 283.533 40.5235C282.608 40.5235 281.771 40.612 281.023 40.7885C280.274 40.9582 279.575 41.2055 278.94 41.5306C278.293 41.8554 277.693 42.2654 277.16 42.7531C276.578 43.2864 276.034 43.8554 275.525 44.4594V62.1316L275.938 62.5554C276.701 63.3257 277.619 63.9262 278.632 64.3186C279.748 64.7353 280.92 64.9402 282.146 64.9402C283.261 64.9508 284.363 64.7211 285.373 64.2584C286.355 63.8028 287.205 63.0713 287.929 62.0714Z" fill="#512FC9"/>
<path fill-rule="evenodd" clip-rule="evenodd" d="M182.483 36.1885C180.767 34.5315 178.719 33.2562 176.473 32.4506C174.002 31.5708 171.396 31.1362 168.773 31.1681C165.528 31.1681 162.618 31.7157 160.044 32.8146C157.573 33.8426 155.334 35.3547 153.463 37.2696C151.648 39.1492 150.232 41.375 149.296 43.8161C148.322 46.3389 147.831 49.0238 147.845 51.7303C147.845 55.4224 148.406 58.6621 149.543 61.4462C150.673 64.23 152.213 66.5619 154.162 68.4343C156.111 70.3104 158.385 71.72 160.987 72.674C163.586 73.6208 166.375 74.0978 169.341 74.0978C170.789 74.0978 172.303 73.9953 173.9 73.7974C175.492 73.5961 177.084 73.2358 178.68 72.7094C180.276 72.1898 181.83 71.4692 183.341 70.5434C184.637 69.7558 185.859 68.7592 187.006 67.5652L187.571 66.9505L183.896 62.4919C183.373 61.7675 182.614 61.4036 181.604 61.4036C180.841 61.4036 180.114 61.5802 179.422 61.93C178.723 62.2762 177.96 62.6649 177.13 63.0924C176.216 63.5553 175.266 63.9438 174.288 64.2583C173.225 64.6081 171.958 64.7812 170.489 64.7812C167.735 64.7812 165.485 63.9969 163.745 62.4318C162.117 60.9691 161.072 58.6726 160.606 55.5423L160.517 54.8605H184.955C185.53 54.8605 185.996 54.7932 186.363 54.6626C186.731 54.5284 187.045 54.274 187.246 53.9384C187.49 53.5075 187.645 53.0268 187.695 52.5323C187.776 51.9423 187.818 51.1827 187.818 50.2428C187.818 47.2434 187.345 44.5582 186.406 42.1912C185.537 39.9334 184.203 37.8879 182.483 36.1885ZM160.638 47.632C161.075 45.0882 161.976 43.138 163.335 41.7884C164.698 40.4352 166.59 39.7604 169.016 39.7604C170.376 39.7604 171.534 39.9899 172.491 40.4457C173.387 40.8557 174.175 41.4668 174.8 42.23C175.39 42.972 175.82 43.8271 176.068 44.7419C176.325 45.6854 176.456 46.6568 176.452 47.632H160.638Z" fill="#512FC9"/>
<path fill-rule="evenodd" clip-rule="evenodd" d="M244.238 32.4506C246.484 33.2562 248.532 34.5281 250.248 36.1851C251.922 37.8209 253.232 39.8238 254.171 42.1912C255.106 44.5582 255.579 47.2435 255.579 50.2429C255.579 51.1827 255.544 51.9423 255.456 52.5323C255.407 53.0268 255.251 53.5075 255.008 53.9384C254.806 54.274 254.496 54.5285 254.128 54.6627C253.676 54.8075 253.2 54.8745 252.719 54.8606H228.279L228.367 55.5423C228.833 58.6726 229.878 60.9691 231.51 62.4318C233.25 64.0004 235.5 64.7778 238.253 64.7778C239.722 64.7778 240.99 64.6082 242.053 64.2583C243.027 63.9473 243.977 63.5587 244.892 63.096C245.725 62.6649 246.488 62.2763 247.183 61.9337C247.875 61.5802 248.606 61.4071 249.365 61.4071C250.379 61.4071 251.138 61.7675 251.657 62.4919L255.336 66.9505L254.768 67.5653C253.68 68.7133 252.448 69.7134 251.106 70.5434C249.591 71.4692 248.041 72.1936 246.449 72.7128C244.892 73.2286 243.288 73.5889 241.664 73.7974C240.068 73.9953 238.554 74.0978 237.11 74.0978C234.26 74.1189 231.432 73.6349 228.752 72.674C226.202 71.7554 223.876 70.3139 221.923 68.4343C219.974 66.5619 218.438 64.2371 217.305 61.4496C216.175 58.6621 215.606 55.4224 215.606 51.7303C215.606 48.9428 216.094 46.307 217.061 43.8162C217.997 41.3751 219.413 39.1492 221.228 37.2696C223.099 35.3582 225.338 33.8426 227.806 32.8147C230.38 31.7158 233.289 31.1646 236.53 31.1646L236.534 31.1682C239.157 31.1362 241.767 31.5708 244.238 32.4506ZM231.1 41.7885C229.737 43.1415 228.837 45.0883 228.402 47.632L244.217 47.632C244.217 46.6391 244.09 45.6816 243.832 44.7419C243.571 43.8057 243.151 42.9649 242.565 42.23C241.975 41.4917 241.209 40.8981 240.252 40.4422C239.299 39.9899 238.144 39.7639 236.778 39.7639C234.352 39.7639 232.459 40.4388 231.1 41.7885Z" fill="#512FC9"/>
<path fill-rule="evenodd" clip-rule="evenodd" d="M344.575 36.9096C342.63 35.03 340.31 33.5815 337.771 32.6524C335.126 31.663 332.199 31.1685 328.986 31.1685C325.741 31.1685 322.79 31.663 320.134 32.6524C317.574 33.5815 315.237 35.0336 313.267 36.9096C311.318 38.803 309.796 41.0997 308.814 43.6365C307.766 46.2721 307.243 49.2398 307.243 52.5326C307.243 55.85 307.766 58.8426 308.814 61.5099C309.863 64.1704 311.349 66.4313 313.267 68.2969C315.237 70.1872 317.574 71.6499 320.134 72.5896C322.793 73.5964 325.741 74.0981 328.986 74.0981C332.199 74.0981 335.13 73.5964 337.771 72.5896C340.313 71.6499 342.633 70.1872 344.575 68.2969C346.468 66.4313 347.94 64.1704 348.989 61.5099C350.041 58.8461 350.564 55.85 350.564 52.5326C350.564 49.2398 350.041 46.2721 348.989 43.6365C348.011 41.1068 346.506 38.8139 344.575 36.9096ZM335.42 61.8279C334.046 63.8489 331.896 64.8628 328.986 64.8628C325.989 64.8628 323.792 63.8524 322.405 61.8279C321.013 59.807 320.321 56.7369 320.321 52.614C320.321 48.4907 321.013 45.4206 322.405 43.4174C323.796 41.4106 325.989 40.4037 328.986 40.4037C331.896 40.4037 334.046 41.407 335.42 43.4174C336.797 45.4206 337.482 48.4907 337.482 52.614C337.482 56.7369 336.797 59.807 335.42 61.8279Z" fill="#512FC9"/>
<path d="M413.442 63.7604C413.675 63.9334 413.911 64.2053 414.159 64.58L418 70.4837L417.379 70.9218C415.871 71.925 414.222 72.6919 412.485 73.1935C410.437 73.7941 408.329 74.098 406.147 74.098C404.131 74.098 402.355 73.8082 400.812 73.2359C399.357 72.7096 398.03 71.8757 396.931 70.7838C395.865 69.6958 395.046 68.3885 394.541 66.9507C393.976 65.3359 393.701 63.6368 393.722 61.9303V40.4035H390.124L389.806 40.3861C389.301 40.333 388.828 40.1245 388.45 39.7817C387.988 39.3684 387.758 38.7571 387.758 37.9517V33.0973L394.499 31.8113L396.995 21.647L397.087 21.3393C397.479 20.2618 398.372 19.7212 399.77 19.7212H406.394V31.8891H416.694V40.4001H406.394V61.0858L406.408 61.4923C406.465 62.2728 406.701 62.9373 407.111 63.4776C407.584 64.1031 408.273 64.4211 409.169 64.4211C409.858 64.435 410.543 64.2761 411.154 63.9583C411.387 63.838 411.602 63.7321 411.811 63.6368C412.033 63.5378 412.28 63.4918 412.524 63.4953C412.852 63.4812 413.173 63.5731 413.442 63.7604Z" fill="#512FC9"/>
<path d="M293.362 31.0059L293.366 31.006L293.368 31.0059H293.362Z" fill="#512FC9"/>
<path d="M369.924 37.8704C371.209 36.0086 372.801 34.3833 374.634 33.0551C376.565 31.6911 378.68 31.0059 380.968 31.0059C382.903 31.0059 384.453 31.4617 385.629 32.3732L383.998 41.5308L383.92 41.8451C383.832 42.1914 383.627 42.4987 383.341 42.7144C383.016 42.944 382.578 43.057 382.034 43.057C381.568 43.057 381.025 42.9935 380.4 42.8732C379.775 42.7533 378.984 42.6931 378.027 42.6931C374.704 42.6931 372.088 44.4312 370.181 47.9113V73.4551H357.513V31.8114H365.026L365.478 31.822C365.856 31.8326 366.234 31.882 366.601 31.9704C366.986 32.0622 367.35 32.2317 367.664 32.4719C367.957 32.7121 368.183 33.0231 368.317 33.3766C368.487 33.8216 368.617 34.2776 368.705 34.7438L369.401 38.6336L369.924 37.8704Z" fill="#512FC9"/>
</svg>
